public/race-planner/icons/ravito.svg

<svg version="1.1" id="Layer_1" xmlns="http://www.w3.org/2000/svg" xmlns:xlink="http://www.w3.org/1999/xlink" x="0px" y="0px"
	 width="100%" viewBox="0 0 512 512" enable-background="new 0 0 512 512" xml:space="preserve">
<path fill="#000000" opacity="1.000000" stroke="none" 
	d="
M391.000000,513.000000 
	C270.312439,513.000000 149.624878,513.000000 28.373367,512.650024 
	C20.487309,509.281769 16.837120,504.032959 16.940346,495.893494 
	C17.143108,479.905670 17.096552,463.912598 16.949303,447.923553 
	C16.895443,442.075134 19.326416,437.802032 24.205811,435.029785 
	C30.771994,431.299164 37.385353,427.589569 44.252769,424.475952 
	C47.971939,422.789734 49.099045,420.775665 49.095089,416.754028 
	C48.977909,297.659058 48.999966,178.563904 49.000500,59.468800 
	C49.000507,58.136311 48.799381,56.764343 49.043011,55.477211 
	C53.208172,33.472218 65.005844,17.075144 85.162315,7.043237 
	C89.929840,4.670432 95.044838,2.995799 100.000000,1.000001 
	C172.354233,1.000000 244.708450,1.000000 317.656494,1.376408 
	C345.550171,6.592882 368.277496,31.718103 368.945221,59.651680 
	C369.263763,72.976654 369.000000,86.315536 369.000000,99.648117 
	C369.000000,120.299004 369.000000,140.949890 369.000000,161.549545 
	C389.855743,167.591080 406.877258,178.770401 419.047302,196.627579 
	C428.156769,209.994003 433.316162,224.524841 433.134674,241.134689 
	C432.712219,279.794556 432.965729,318.462250 433.044067,357.126587 
	C433.053680,361.864258 433.522705,366.616394 434.037445,371.333588 
	C434.633362,376.794342 437.711182,380.799255 442.690002,382.795563 
	C448.446747,385.103790 454.163239,384.603882 459.096710,380.394165 
	C464.002319,376.208282 464.947021,370.386047 464.956909,364.465759 
	C465.034546,317.968506 465.000000,271.471069 465.000000,224.973694 
	C465.000000,208.147278 465.000000,191.320847 465.000000,174.572556 
	C439.924438,162.979492 429.973083,138.483353 433.764099,123.361816 
	C426.154480,119.576225 418.528076,115.792740 410.911102,111.990257 
	C402.197937,107.640526 398.716522,98.010925 402.909088,89.539314 
	C406.951416,81.371262 415.924622,77.491966 425.281952,82.104797 
	C446.224152,92.428574 467.065948,102.956482 487.923370,113.451462 
	C494.047852,116.533142 497.089264,121.282410 497.078186,128.482239 
	C496.954346,208.977509 496.937317,289.473145 497.063660,369.968414 
	C497.083984,382.918610 492.381836,393.820404 483.585175,402.750275 
	C468.922333,417.635193 448.833832,420.979034 430.138885,413.485870 
	C413.422913,406.785919 400.749939,389.471466 400.907227,369.726257 
	C401.220459,330.397644 400.989136,291.064758 401.007507,251.733643 
	C401.012238,241.592941 400.559143,231.485138 395.940918,222.212921 
	C390.190308,210.667206 381.367889,202.210220 369.503326,196.781754 
	C369.225983,197.555450 369.027832,197.850082 369.027740,198.144775 
	C369.009460,271.807251 368.988007,345.469757 369.124420,419.131958 
	C369.127106,420.576141 370.665466,422.592468 372.036835,423.359863 
	C378.071350,426.736511 384.280701,429.806793 390.478119,432.884552 
	C397.721375,436.481689 401.439209,441.743195 401.137207,450.333282 
	C400.633942,464.648102 400.541504,479.013580 401.167480,493.318726 
	C401.559021,502.267090 399.038330,508.833496 391.000000,513.000000 
M245.500000,33.000000 
	C203.341171,33.000000 161.182220,32.954784 119.023689,33.067745 
	C114.657814,33.079441 110.079842,33.357178 105.967125,34.665035 
	C88.294716,40.284939 81.124176,51.808060 81.096268,69.937576 
	C80.910545,190.581558 81.000008,311.225952 81.000000,431.870209 
	C81.000000,432.870026 81.090599,433.879547 80.984497,434.867981 
	C80.486229,439.509827 79.040459,443.642914 74.604050,446.035858 
	C66.131287,450.605865 57.650112,455.160339 49.334579,459.634003 
	C49.334579,466.730896 49.334579,473.811279 49.334579,480.682007 
	C156.060776,480.682007 262.452179,480.682007 368.906982,480.682007 
	C368.906982,473.385864 368.906982,466.407867 368.906982,459.475677 
	C361.484955,455.740417 354.181549,451.998535 346.818237,448.378601 
	C340.037964,445.045288 336.838043,439.878876 336.923340,432.145569 
	C337.149384,411.651886 337.053314,391.153870 336.991028,370.657867 
	C336.677246,267.427826 336.442505,164.197067 335.698669,60.970047 
	C335.658722,55.425949 332.123840,49.283062 328.687866,44.521503 
	C322.183350,35.507507 311.972534,33.221409 301.488739,33.072536 
	C283.162506,32.812294 264.829926,33.000000 245.500000,33.000000 
z"/>
<path fill="#FFFFFF" opacity="1.000000" stroke="none" 
	d="
M391.468658,513.000000 
	C399.038330,508.833496 401.559021,502.267090 401.167480,493.318726 
	C400.541504,479.013580 400.633942,464.648102 401.137207,450.333282 
	C401.439209,441.743195 397.721375,436.481689 390.478119,432.884552 
	C384.280701,429.806793 378.071350,426.736511 372.036835,423.359863 
	C370.665466,422.592468 369.127106,420.576141 369.124420,419.131958 
	C368.988007,345.469757 369.009460,271.807251 369.027740,198.144775 
	C369.027832,197.850082 369.225983,197.555450 369.503326,196.781754 
	C381.367889,202.210220 390.190308,210.667206 395.940918,222.212921 
	C400.559143,231.485138 401.012238,241.592941 401.007507,251.733643 
	C400.989136,291.064758 401.220459,330.397644 400.907227,369.726257 
	C400.749939,389.471466 413.422913,406.785919 430.138885,413.485870 
	C448.833832,420.979034 468.922333,417.635193 483.585175,402.750275 
	C492.381836,393.820404 497.083984,382.918610 497.063660,369.968414 
	C496.937317,289.473145 496.954346,208.977509 497.078186,128.482239 
	C497.089264,121.282410 494.047852,116.533142 487.923370,113.451462 
	C467.065948,102.956482 446.224152,92.428574 425.281952,82.104797 
	C415.924622,77.491966 406.951416,81.371262 402.909088,89.539314 
	C398.716522,98.010925 402.197937,107.640526 410.911102,111.990257 
	C418.528076,115.792740 426.154480,119.576225 433.764099,123.361816 
	C429.973083,138.483353 439.924438,162.979492 465.000000,174.572556 
	C465.000000,191.320847 465.000000,208.147278 465.000000,224.973694 
	C465.000000,271.471069 465.034546,317.968506 464.956909,364.465759 
	C464.947021,370.386047 464.002319,376.208282 459.096710,380.394165 
	C454.163239,384.603882 448.446747,385.103790 442.690002,382.795563 
	C437.711182,380.799255 434.633362,376.794342 434.037445,371.333588 
	C433.522705,366.616394 433.053680,361.864258 433.044067,357.126587 
	C432.965729,318.462250 432.712219,279.794556 433.134674,241.134689 
	C433.316162,224.524841 428.156769,209.994003 419.047302,196.627579 
	C406.877258,178.770401 389.855743,167.591080 369.000000,161.549545 
	C369.000000,140.949890 369.000000,120.299004 369.000000,99.648117 
	C369.000000,86.315536 369.263763,72.976654 368.945221,59.651680 
	C368.277496,31.718103 345.550171,6.592882 318.125183,1.376408 
	C382.965698,1.000000 447.931396,1.000000 512.936646,1.000000 
	C512.936646,171.666672 512.936646,342.333344 512.936646,513.000000 
	C472.561340,513.000000 432.249329,513.000000 391.468658,513.000000 
z"/>
<path fill="#FFFFFF" opacity="1.000000" stroke="none" 
	d="
M99.531342,1.000001 
	C95.044838,2.995799 89.929840,4.670432 85.162315,7.043237 
	C65.005844,17.075144 53.208172,33.472218 49.043011,55.477211 
	C48.799381,56.764343 49.000507,58.136311 49.000500,59.468800 
	C48.999966,178.563904 48.977909,297.659058 49.095089,416.754028 
	C49.099045,420.775665 47.971939,422.789734 44.252769,424.475952 
	C37.385353,427.589569 30.771994,431.299164 24.205811,435.029785 
	C19.326416,437.802032 16.895443,442.075134 16.949303,447.923553 
	C17.096552,463.912598 17.143108,479.905670 16.940346,495.893494 
	C16.837120,504.032959 20.487309,509.281769 27.904709,512.650024 
	C19.006174,513.000000 10.012350,513.000000 1.013894,513.000000 
	C1.009263,342.456604 1.009263,171.913208 1.009263,1.000000 
	C33.686630,1.000000 66.374657,1.000000 99.531342,1.000001 
z"/>
<path fill="#FFFFFF" opacity="1.000000" stroke="none" 
	d="
M246.000000,33.000000 
	C264.829926,33.000000 283.162506,32.812294 301.488739,33.072536 
	C311.972534,33.221409 322.183350,35.507507 328.687866,44.521503 
	C332.123840,49.283062 335.658722,55.425949 335.698669,60.970047 
	C336.442505,164.197067 336.677246,267.427826 336.991028,370.657867 
	C337.053314,391.153870 337.149384,411.651886 336.923340,432.145569 
	C336.838043,439.878876 340.037964,445.045288 346.818237,448.378601 
	C354.181549,451.998535 361.484955,455.740417 368.906982,459.475677 
	C368.906982,466.407867 368.906982,473.385864 368.906982,480.682007 
	C262.452179,480.682007 156.060776,480.682007 49.334579,480.682007 
	C49.334579,473.811279 49.334579,466.730896 49.334579,459.634003 
	C57.650112,455.160339 66.131287,450.605865 74.604050,446.035858 
	C79.040459,443.642914 80.486229,439.509827 80.984497,434.867981 
	C81.090599,433.879547 81.000000,432.870026 81.000000,431.870209 
	C81.000008,311.225952 80.910545,190.581558 81.096268,69.937576 
	C81.124176,51.808060 88.294716,40.284939 105.967125,34.665035 
	C110.079842,33.357178 114.657814,33.079441 119.023689,33.067745 
	C161.182220,32.954784 203.341171,33.000000 246.000000,33.000000 
M305.000000,174.500000 
	C305.000000,148.183472 305.005402,121.866943 304.996826,95.550415 
	C304.994171,87.317955 298.746887,81.005264 290.582184,81.004082 
	C236.116745,80.996201 181.651321,80.994438 127.185883,81.006172 
	C119.281372,81.007881 113.007065,87.332260 113.005119,95.282669 
	C112.994400,139.088196 112.994652,182.893738 113.004898,226.699265 
	C113.006760,234.646027 119.283981,240.991882 127.167809,240.993622 
	C181.633240,241.005707 236.098679,241.003677 290.564117,240.996048 
	C298.736725,240.994919 304.991516,234.689560 304.996735,226.467651 
	C305.007507,209.478439 305.000000,192.489212 305.000000,174.500000 
z"/>
<path fill="#000000" opacity="1.000000" stroke="none" 
	d="
M305.000000,175.000000 
	C305.000000,192.489212 305.007507,209.478439 304.996735,226.467651 
	C304.991516,234.689560 298.736725,240.994919 290.564117,240.996048 
	C236.098679,241.003677 181.633240,241.005707 127.167809,240.993622 
	C119.283981,240.991882 113.006760,234.646027 113.004898,226.699265 
	C112.994652,182.893738 112.994400,139.088196 113.005119,95.282669 
	C113.007065,87.332260 119.281372,81.007881 127.185883,81.006172 
	C181.651321,80.994438 236.116745,80.996201 290.582184,81.004082 
	C298.746887,81.005264 304.994171,87.317955 304.996826,95.550415 
	C305.005402,121.866943 305.000000,148.183472 305.000000,175.000000 
M226.500000,113.000000 
	C199.405991,113.000000 172.311996,113.000000 145.286377,113.000000 
	C145.286377,145.308670 145.286377,177.045013 145.286377,208.714264 
	C187.975403,208.714264 230.377457,208.714264 272.713654,208.714264 
	C272.713654,176.691391 272.713654,144.955048 272.713654,113.000000 
	C257.452209,113.000000 242.476105,113.000000 226.500000,113.000000 
z"/>
<path fill="#FFFFFF" opacity="1.000000" stroke="none" 
	d="
M227.000000,113.000000 
	C242.476105,113.000000 257.452209,113.000000 272.713654,113.000000 
	C272.713654,144.955048 272.713654,176.691391 272.713654,208.714264 
	C230.377457,208.714264 187.975403,208.714264 145.286377,208.714264 
	C145.286377,177.045013 145.286377,145.308670 145.286377,113.000000 
	C172.311996,113.000000 199.405991,113.000000 227.000000,113.000000 
z"/>
</svg>

<svg width="512" height="512" xmlns="http://www.w3.org/2000/svg" version="1.1" enable-background="new 0 0 512 512" xml:space="preserve">
 <g>
  <title>Layer 1</title>
  <path fill="#000000" d="m391,513c-120.68756,0 -241.37512,0 -362.62663,-0.34998c-7.88606,-3.36825 -11.53625,-8.61706 -11.43302,-16.75653c0.20276,-15.98782 0.1562,-31.98089 0.00895,-47.96994c-0.05386,-5.84842 2.37712,-10.12152 7.25651,-12.89376c6.56618,-3.73063 13.17954,-7.44022 20.04696,-10.55384c3.71917,-1.68622 4.84627,-3.70028 4.84232,-7.72192c-0.11718,-119.09497 -0.09512,-238.19013 -0.09459,-357.28523c0.00001,-1.33249 -0.20112,-2.70446 0.04251,-3.99159c4.16516,-22.00499 15.96283,-38.40207 36.11931,-48.43397c4.76752,-2.37281 9.88252,-4.04744 14.83768,-6.04324c72.35423,0 144.70845,0 217.65649,0.37641c27.89368,5.21647 50.62101,30.34169 51.28873,58.27527c0.31854,13.32497 0.05478,26.66386 0.05478,39.99644c0,20.65088 0,41.30177 0,61.90142c20.85574,6.04154 37.87726,17.22086 50.0473,35.07804c9.10947,13.36642 14.26886,27.89726 14.08737,44.50711c-0.42245,38.65987 -0.16894,77.32756 -0.0906,115.9919c0.00961,4.73767 0.47863,9.4898 0.99337,14.207c0.59592,5.46075 3.67374,9.46567 8.65256,11.46197c5.75675,2.30823 11.47324,1.80832 16.40671,-2.4014c4.90561,-4.18588 5.85031,-10.00811 5.8602,-15.9284c0.07764,-46.49725 0.04309,-92.99469 0.04309,-139.49207c0,-16.82641 0,-33.65284 0,-50.40113c-25.07556,-11.59307 -35.02692,-36.08921 -31.2359,-51.21074c-7.60962,-3.7856 -15.23602,-7.56908 -22.853,-11.37156c-8.71316,-4.34973 -12.19458,-13.97933 -8.00201,-22.45095c4.04233,-8.16805 13.01553,-12.04734 22.37286,-7.43451c20.9422,10.32377 41.784,20.85168 62.64142,31.34666c6.12448,3.08168 9.16589,7.83095 9.15482,15.03078c-0.12384,80.49527 -0.14087,160.9909 -0.01453,241.48617c0.02032,12.9502 -4.68182,23.85199 -13.47849,32.78186c-14.66284,14.88492 -34.75134,18.22876 -53.44628,10.7356c-16.71598,-6.69995 -29.38895,-24.0144 -29.23166,-43.75961c0.31323,-39.32862 0.08191,-78.6615 0.10028,-117.99262c0.00473,-10.1407 -0.44837,-20.2485 -5.06659,-29.52072c-5.75061,-11.54571 -14.57303,-20.0027 -26.43759,-25.43117c-0.27735,0.7737 -0.4755,1.06833 -0.47559,1.36303c-0.01828,73.66247 -0.03973,147.32498 0.09668,220.98718c0.00269,1.44418 1.54105,3.46051 2.91241,4.2279c6.03452,3.37665 12.24387,6.44693 18.44129,9.52469c7.24326,3.59714 10.96109,8.85865 10.65909,17.44873c-0.50327,14.31482 -0.59571,28.6803 0.03027,42.98545c0.39154,8.94836 -2.12915,15.51477 -10.16748,19.68127m-145.5,-480c-42.15883,0 -84.31778,-0.04522 -126.47631,0.06775c-4.36588,0.01169 -8.94385,0.28943 -13.05657,1.59729c-17.6724,5.6199 -24.84294,17.14302 -24.87085,35.27254c-0.18573,120.64398 -0.09626,241.28837 -0.09627,361.93263c0,0.99982 0.0906,2.00934 -0.0155,2.99777c-0.49827,4.64185 -1.94404,8.77493 -6.38045,11.16788c-8.47276,4.57 -16.95394,9.12448 -25.26947,13.59814c0,7.0969 0,14.17728 0,21.04801c106.7262,0 213.1176,0 319.5724,0c0,-7.29615 0,-14.27414 0,-21.20633c-7.42202,-3.73526 -14.72543,-7.47714 -22.08874,-11.09708c-6.78028,-3.33331 -9.9802,-8.49972 -9.8949,-16.23303c0.22604,-20.49368 0.12997,-40.9917 0.06769,-61.4877c-0.31378,-103.23004 -0.54853,-206.4608 -1.29236,-309.68782c-0.03995,-5.5441 -3.57483,-11.68699 -7.0108,-16.44855c-6.50452,-9.01399 -16.71534,-11.30009 -27.19913,-11.44896c-18.32623,-0.26025 -36.65881,-0.07254 -55.98874,-0.07254z" id="svg_1"/>
  <path fill="none" d="m391.46866,513c7.56967,-4.1665 10.09036,-10.73291 9.69882,-19.68127c-0.62598,-14.30515 -0.53354,-28.67063 -0.03027,-42.98545c0.302,-8.59008 -3.41583,-13.85159 -10.65909,-17.44873c-6.19742,-3.07776 -12.40677,-6.14804 -18.44129,-9.52469c-1.37136,-0.76739 -2.90972,-2.78372 -2.91241,-4.2279c-0.13641,-73.6622 -0.11496,-147.32471 -0.09668,-220.98718c0.00009,-0.2947 0.19824,-0.58933 0.47559,-1.36303c11.86456,5.42847 20.68698,13.88546 26.43759,25.43117c4.61822,9.27222 5.07132,19.38002 5.06659,29.52072c-0.01837,39.33112 0.21295,78.664 -0.10028,117.99262c-0.15729,19.74521 12.51568,37.05966 29.23166,43.75961c18.69494,7.49316 38.78344,4.14932 53.44628,-10.7356c8.79667,-8.92987 13.49881,-19.83166 13.47849,-32.78186c-0.12634,-80.49527 -0.10931,-160.9909 0.01453,-241.48617c0.01107,-7.19983 -3.03034,-11.9491 -9.15482,-15.03078c-20.85742,-10.49498 -41.69922,-21.02289 -62.64142,-31.34666c-9.35733,-4.61283 -18.33053,-0.73354 -22.37286,7.43451c-4.19257,8.47162 -0.71115,18.10122 8.00201,22.45095c7.61698,3.80248 15.24338,7.58596 22.853,11.37156c-3.79102,15.12153 6.16034,39.61767 31.2359,51.21074c0,16.74829 0,33.57472 0,50.40113c0,46.49738 0.03455,92.99482 -0.04309,139.49207c-0.00989,5.92029 -0.95459,11.74252 -5.8602,15.9284c-4.93347,4.20972 -10.64996,4.70963 -16.40671,2.4014c-4.97882,-1.9963 -8.05664,-6.00122 -8.65256,-11.46197c-0.51474,-4.7172 -0.98376,-9.46933 -0.99337,-14.207c-0.07834,-38.66434 -0.33185,-77.33203 0.0906,-115.9919c0.18149,-16.60985 -4.9779,-31.14069 -14.08737,-44.50711c-12.17004,-17.85718 -29.19156,-29.0365 -50.0473,-35.07804c0,-20.59965 0,-41.25054 0,-61.90142c0,-13.33258 0.26376,-26.67147 -0.05478,-39.99644c-0.66772,-27.93358 -23.39505,-53.0588 -50.82004,-58.27527c64.84052,-0.37641 129.80622,-0.37641 194.81147,-0.37641c0,170.66667 0,341.33334 0,512c-40.37531,0 -80.68732,0 -121.46799,0z" id="svg_2"/>
  <path fill="none" d="m99.53134,1c-4.4865,1.9958 -9.6015,3.67043 -14.36902,6.04324c-20.15648,10.0319 -31.95415,26.42898 -36.11931,48.43397c-0.24363,1.28713 -0.0425,2.6591 -0.04251,3.99159c-0.00053,119.0951 -0.02259,238.19026 0.09459,357.28523c0.00395,4.02164 -1.12315,6.0357 -4.84232,7.72192c-6.86742,3.11362 -13.48078,6.82321 -20.04696,10.55384c-4.87939,2.77224 -7.31037,7.04534 -7.25651,12.89376c0.14725,15.98905 0.19381,31.98212 -0.00895,47.96994c-0.10323,8.13947 3.54696,13.38828 10.96436,16.75653c-8.89854,0.34998 -17.89236,0.34998 -26.89082,0.34998c-0.00463,-170.5434 -0.00463,-341.08679 -0.00463,-512c32.67737,0 65.3654,0 98.52208,0z" id="svg_3"/>
  <path fill="none" d="m246,33c18.82993,0 37.16251,-0.18771 55.48874,0.07254c10.48379,0.14887 20.69461,2.43497 27.19913,11.44896c3.43597,4.76156 6.97085,10.90445 7.0108,16.44855c0.74383,103.22702 0.97858,206.45778 1.29236,309.68782c0.06228,20.496 0.15835,40.99402 -0.06769,61.4877c-0.0853,7.73331 3.11462,12.89972 9.8949,16.23303c7.36331,3.61994 14.66672,7.36182 22.08874,11.09708c0,6.93219 0,13.91018 0,21.20633c-106.4548,0 -212.8462,0 -319.5724,0c0,-6.87073 0,-13.95111 0,-21.04801c8.31553,-4.47366 16.79671,-9.02814 25.26947,-13.59814c4.43641,-2.39295 5.88218,-6.52603 6.38045,-11.16788c0.1061,-0.98843 0.0155,-1.99795 0.0155,-2.99777c0.00001,-120.64426 -0.08946,-241.28865 0.09627,-361.93263c0.02791,-18.12952 7.19845,-29.65264 24.87085,-35.27254c4.11272,-1.30786 8.69069,-1.5856 13.05657,-1.59729c42.15853,-0.11297 84.31748,-0.06775 126.97631,-0.06775m59,141.5c0,-26.31653 0.0054,-52.63306 -0.00317,-78.94958c-0.00266,-8.23247 -6.24994,-14.54516 -14.41465,-14.54634c-54.46543,-0.00788 -108.93086,-0.00964 -163.3963,0.00209c-7.90451,0.00171 -14.17882,6.32609 -14.18076,14.2765c-0.01072,43.80553 -0.01047,87.61107 -0.00022,131.41659c0.00186,7.94677 6.27908,14.29262 14.16291,14.29436c54.46543,0.01209 108.93087,0.01006 163.39631,0.00243c8.1726,-0.00113 14.4274,-6.30649 14.43262,-14.5284c0.01077,-16.98921 0.00326,-33.97844 0.00326,-51.96765z" id="svg_4"/>
  <path fill="#000000" d="m305,175c0,17.48921 0.00751,34.47844 -0.00326,51.46765c-0.00522,8.22191 -6.26002,14.52727 -14.43262,14.5284c-54.46544,0.00763 -108.93088,0.00966 -163.39631,-0.00243c-7.88383,-0.00174 -14.16105,-6.34759 -14.16291,-14.29436c-0.01025,-43.80552 -0.0105,-87.61106 0.00022,-131.41659c0.00194,-7.95041 6.27625,-14.27479 14.18076,-14.2765c54.46544,-0.01173 108.93087,-0.00997 163.3963,-0.00209c8.16471,0.00118 14.41199,6.31387 14.41465,14.54634c0.00857,26.31652 0.00317,52.63305 0.00317,79.44958m-78.5,-62c-27.09401,0 -54.188,0 -81.21362,0c0,32.30867 0,64.04501 0,95.71426c42.68902,0 85.09108,0 127.42727,0c0,-32.02287 0,-63.75921 0,-95.71426c-15.26144,0 -30.23755,0 -46.21365,0z" id="svg_5"/>
  <path fill="none" d="m227,113c15.4761,0 30.45221,0 45.71365,0c0,31.95505 0,63.69139 0,95.71426c-42.33619,0 -84.73825,0 -127.42727,0c0,-31.66925 0,-63.40559 0,-95.71426c27.02562,0 54.11961,0 81.71362,0z" id="svg_6"/>
 </g>

</svg>
